svg/300/sharp/no_transfer-fill.svg

<svg xmlns="http://www.w3.org/2000/svg" width="48" height="48" viewBox="0 -960 960 960"><path d="M841.847-52.924 652.461-242.31h65.229v102.309h-60.075v-81.616h-355.23v81.616H242.54v-101Q215.848-252 197.925-282.193q-17.924-30.192-17.924-66.115v-366.461L50.617-844.154l32.615-32.614L874.46-85.538l-32.614 32.614Zm-77.233-235.001L533.848-518.691h200.767v-188.002H345.846L233.001-819.537q36.12-20.539 97.259-30.5 61.139-9.962 150.355-9.962 157.173 0 228.278 30.144 71.106 30.144 71.106 96.855v384.692q0 16.097-3.847 31.279-3.846 15.181-11.538 29.104Zm-434.677-34.076q20.217 0 34.294-14.167 14.076-14.167 14.076-34.384t-14.167-34.486q-14.167-14.269-34.384-14.269t-34.486 14.359q-14.269 14.36-14.269 34.577t14.359 34.293q14.36 14.077 34.577 14.077Zm-104.552-196.69h150.694L225.385-669.386v150.695Z"/></svg>

<svg xmlns="http://www.w3.org/2000/svg" width="48" height="48" viewBox="0 -960 960 960"><path d="M841.85-52.92 652.46-242.31h65.23V-140h-60.07v-81.62H302.38V-140h-59.84v-101q-26.69-11-44.62-41.19Q180-312.39 180-348.31v-366.46L50.62-844.15l32.61-32.62L874.46-85.54l-32.61 32.62Zm-77.24-235L533.85-518.69h200.76v-188H345.85L233-819.54q36.12-20.54 97.26-30.5Q391.4-860 480.62-860q157.17 0 228.27 30.15Q780-799.71 780-733v384.69q0 16.1-3.85 31.28-3.84 15.18-11.54 29.11ZM329.94-322q20.21 0 34.29-14.17 14.08-14.17 14.08-34.38 0-20.22-14.17-34.49-14.17-14.27-34.38-14.27-20.22 0-34.49 14.36Q281-390.59 281-370.37t14.36 34.29Q309.72-322 329.94-322ZM225.39-518.69h150.69l-150.69-150.7v150.7Z"/></svg>
